X:623
M:C|
L:1/8
K:D
g|fdad e=cce|fdad bdad|fdad e=cce|fdec d2dg|fdad e=cce|fdge afbg|
adfa g=ceg|f/g/a ef d2d||

